src/assets/icons/arrows,simple,repeat-simple.svg

<svg width="48" height="48" viewBox="0 0 48 48" fill="none" xmlns="http://www.w3.org/2000/svg">
<rect opacity="0.2" x="5" y="5" width="38" height="38" rx="4" fill="black"/>
<path fill-rule="evenodd" clip-rule="evenodd" d="M18 12H36C37.1046 12 38 12.8954 38 14V22C38 23.1046 37.1046 24 36 24H34C32.8954 24 32 23.1046 32 22V19C32 18.4477 31.5523 18 31 18H18V20.7732C18 21.636 16.9805 22.0938 16.3356 21.5206L9.84084 15.7474C9.39332 15.3496 9.39332 14.6504 9.84084 14.2526L16.3356 8.47943C16.9805 7.90619 18 8.36399 18 9.22684V12Z" fill="black"/>
<path opacity="0.6" fill-rule="evenodd" clip-rule="evenodd" d="M30 36H12C10.8954 36 10 35.1046 10 34V26C10 24.8954 10.8954 24 12 24H14C15.1046 24 16 24.8954 16 26V29C16 29.5523 16.4477 30 17 30H30V27.2268C30 26.364 31.0195 25.9062 31.6644 26.4794L38.1592 32.2526C38.6067 32.6504 38.6067 33.3496 38.1592 33.7474L31.6644 39.5206C31.0195 40.0938 30 39.636 30 38.7732V36Z" fill="black"/>
</svg>

<svg xmlns="http://www.w3.org/2000/svg" width="48" height="48" fill="none" viewBox="0 0 48 48">
  <rect width="38" height="38" x="5" y="5" fill="#000" opacity=".2" rx="4"/>
  <path fill="#000" fill-rule="evenodd" d="M18 12h18a2 2 0 012 2v8a2 2 0 01-2 2h-2a2 2 0 01-2-2v-3a1 1 0 00-1-1H18v2.773c0 .863-1.02 1.32-1.664.748L9.84 15.747a1 1 0 010-1.494l6.495-5.774C16.98 7.906 18 8.364 18 9.227V12z" clip-rule="evenodd"/>
  <path fill="#000" fill-rule="evenodd" d="M30 36H12a2 2 0 01-2-2v-8a2 2 0 012-2h2a2 2 0 012 2v3a1 1 0 001 1h13v-2.773c0-.863 1.02-1.32 1.664-.748l6.495 5.774a1 1 0 010 1.494l-6.495 5.774c-.645.573-1.664.115-1.664-.748V36z" clip-rule="evenodd" opacity=".6"/>
</svg>
